X:59
T:Lancers Quadrilles No.4. Le4.059
B:L.Leadley MS#4 c1850
Z:Village Music Project, 2016 Steve Mansfield
M:6/8
L:1/8
Q:3/8=90
N:The final part is quite legible, but very odd
K:A
c/d/ | ecA AGA | a3 agf | fec AGA | GBG E2 c/d/ |
ecA AGA | a3 def | fec edB | A3 A2 ||
G/A/ | B2B B2B | g3 gfe | e^de BAG | BAF F2 G/A/ |
B2B Be^d | c^Bc f^ef | BcB Bc^d | e3 e2 ||
E | c2c cBA | A^GA G2E | dcd fed | Bcc c3 |
e2a a2g | g3 fed | cfe dfe | A3 A2 "Volto" ||
K:C
"NB"E | c3 cBA | A^GA G2E | d^cd =fed | B=cc c3 |
e2a a2=g | g3 =fed | =c=fe dfe | A3 A2 |]

